X:1
T:Title
%%score { 1 | 2 }
L:1/8
M:4/4
K:F
V:1 treble nm="Grand Piano"
V:2 bass 
V:1
 DEFG A2 c2 | ded^c d2 d2 | f3 e d2 cd | B3 A A4 | DEFG A2 c2 | ded^c d2 d2 | f3 e d2 cd | %7
 B3 A A4 | A3 B c2 F2 | E3 F G2 G2 | G2 A2 B2 Bc | A3 G G4 | A3 B c2 F2 | B2 A2 G4 | D3 E F2 DE | %15
 F2 G2 A2 A2 | F2 G2 A2 G2 | A2 B2 c4 | d3 e f2 ed | d2 ^c>d d4 |] %20
V:2
 D,,4 D,E,F,G, | A,2 A,,2 D,4 | D,2 A,,2 B,,2 A,,2 | G,,2 C,2 F,,4 | D,,4 D,E,F,G, | A,2 A,,2 D,4 | %6
 D,2 A,,2 B,,2 A,,2 | G,,2 C,2 F,,4 | F,2 F,,G,, A,,2 D,2 | C,2 D,2 C,4 | C,B,,A,,F, G,,2 C,2 | %11
 D,2 D,,2 G,,4 | F,2 F,,G,, A,,2 A,2 | G,2 F,2 C,2 C,,2 | D,2 ^C,2 D,4 | D,C, B,,2 A,,4 | %16
 D,2 E,2 F,2 E,2 | F,E,D,G, C,4 | B,A, G,2 F,2 G,2 | A,2 A,,2 D,4 |] %20

